icons/OpenLotus/actions/16/markasblank.svg

<?xml version="1.0" encoding="UTF-8" standalone="no"?>
<svg
   xmlns:dc="http://purl.org/dc/elements/1.1/"
   xmlns:cc="http://creativecommons.org/ns#"
   xmlns:rdf="http://www.w3.org/1999/02/22-rdf-syntax-ns#"
   xmlns:svg="http://www.w3.org/2000/svg"
   xmlns="http://www.w3.org/2000/svg"
   xmlns:sodipodi="http://sodipodi.sourceforge.net/DTD/sodipodi-0.dtd"
   xmlns:inkscape="http://www.inkscape.org/namespaces/inkscape"
   viewBox="0 0 16 16"
   version="1.1"
   id="svg6"
   sodipodi:docname="markasblank.svg"
   inkscape:version="0.92+devel (df5ad324d0, 2017-09-05, custom)">
  <metadata
     id="metadata10">
    <rdf:RDF>
      <cc:Work
         rdf:about="">
        <dc:format>image/svg+xml</dc:format>
        <dc:type
           rdf:resource="http://purl.org/dc/dcmitype/StillImage" />
        <dc:title></dc:title>
      </cc:Work>
    </rdf:RDF>
  </metadata>
  <sodipodi:namedview
     pagecolor="#002466"
     bordercolor="#ffffff"
     inkscape:document-rotation="0"
     borderopacity="0.41568627"
     objecttolerance="10"
     gridtolerance="10"
     guidetolerance="10"
     inkscape:pageopacity="0"
     inkscape:pageshadow="2"
     inkscape:window-width="1920"
     inkscape:window-height="1025"
     id="namedview8"
     showgrid="false"
     inkscape:zoom="45.9375"
     inkscape:cx="7.9346938"
     inkscape:cy="8"
     inkscape:window-x="0"
     inkscape:window-y="26"
     inkscape:window-maximized="1"
     inkscape:current-layer="g829"
     borderlayer="true"
     inkscape:showpageshadow="false"
     inkscape:snap-page="true"
     inkscape:snap-grids="false"
     inkscape:snap-to-guides="false" />
  <defs
     id="defs3051">
    <style
       type="text/css"
       id="current-color-scheme">
      .ColorScheme-Text {
        color:#f2f2f2;
      }
      </style>
  </defs>
  <g
     id="g829"
     inkscape:label="#markasblank">
    <path
       inkscape:label="#boundary"
       id="rect823"
       d="M 0,0 H 16 V 16 H 0 Z"
       style="fill:none;stroke:none;stroke-width:2.6329999;stroke-linecap:square"
       inkscape:connector-curvature="0" />
    <path
       inkscape:label="#"
       inkscape:connector-curvature="0"
       id="path820"
       d="M 2,2 V 14 H 3 5 V 13 H 3 V 3 H 5 V 2 H 3 Z m 9,0 v 1 h 2 v 10 h -2 v 1 h 2 1 V 2 h -1 z"
       style="opacity:0.4;fill:#d0d0d0;fill-opacity:1;stroke:none" />
    <path
       inkscape:label="#"
       id="path4"
       d="m 4,10 v 1 1 h 8 v -1 -1 h -1 v 1 H 5 v -1 z"
       style="opacity:0.859375;fill:#d0d0d0;fill-opacity:1;stroke:none"
       inkscape:connector-curvature="0" />
  </g>
</svg>

<svg xmlns="http://www.w3.org/2000/svg" viewBox="0 0 16 16">
  <defs id="defs3051">
    <style type="text/css" id="current-color-scheme">
      .ColorScheme-Text {
        color:#f2f2f2;
      }
      </style>
  </defs>
 <path style="fill:currentColor;fill-opacity:1;stroke:none" 
       d="M 2 2 L 2 14 L 3 14 L 5 14 L 5 13 L 3 13 L 3 3 L 5 3 L 5 2 L 3 2 L 2 2 z M 11 2 L 11 3 L 13 3 L 13 13 L 11 13 L 11 14 L 13 14 L 14 14 L 14 2 L 13 2 L 11 2 z M 4 10 L 4 11 L 4 12 L 12 12 L 12 11 L 12 10 L 11 10 L 11 11 L 5 11 L 5 10 L 4 10 z "
     class="ColorScheme-Text"
     />
</svg>
